public/images/country/country-01.svg

<svg width="32" height="32" viewBox="0 0 32 32" fill="none" xmlns="http://www.w3.org/2000/svg">
<g clip-path="url(#clip0_1788_4304)">
<path d="M16 32C24.8366 32 32 24.8366 32 16C32 7.16344 24.8366 0 16 0C7.16344 0 0 7.16344 0 16C0 24.8366 7.16344 32 16 32Z" fill="#F0F0F0"/>
<path d="M15.3037 16H31.9993C31.9993 14.5559 31.8068 13.1569 31.4481 11.826H15.3037V16Z" fill="#D80027"/>
<path d="M15.3037 7.65135H29.651C28.6715 6.0531 27.4192 4.64042 25.9591 3.47742H15.3037V7.65135Z" fill="#D80027"/>
<path d="M15.9995 32C19.7651 32 23.2262 30.6985 25.9593 28.5217H6.03979C8.77292 30.6985 12.234 32 15.9995 32Z" fill="#D80027"/>
<path d="M2.34797 24.3465H29.6512C30.4375 23.0635 31.0473 21.661 31.4484 20.1726H0.550781C0.951844 21.661 1.56166 23.0635 2.34797 24.3465Z" fill="#D80027"/>
<path d="M7.4115 2.49863H8.86956L7.51331 3.48394L8.03137 5.07825L6.67519 4.09294L5.319 5.07825L5.7665 3.70094C4.57237 4.69562 3.52575 5.861 2.66325 7.1595H3.13044L2.26712 7.78669C2.13262 8.01106 2.00362 8.239 1.88 8.47031L2.29225 9.73913L1.52313 9.18031C1.33194 9.58537 1.15706 9.99956 0.999875 10.4224L1.45406 11.8204H3.13044L1.77419 12.8057L2.29225 14.4L0.936063 13.4147L0.123687 14.0049C0.042375 14.6586 0 15.3243 0 16H16C16 7.1635 16 6.12175 16 0C12.8393 0 9.89281 0.916875 7.4115 2.49863ZM8.03137 14.4L6.67519 13.4147L5.319 14.4L5.83706 12.8057L4.48081 11.8204H6.15719L6.67519 10.2261L7.19319 11.8204H8.86956L7.51331 12.8057L8.03137 14.4ZM7.51331 8.14481L8.03137 9.73913L6.67519 8.75381L5.319 9.73913L5.83706 8.14481L4.48081 7.1595H6.15719L6.67519 5.56519L7.19319 7.1595H8.86956L7.51331 8.14481ZM13.7705 14.4L12.4143 13.4147L11.0581 14.4L11.5762 12.8057L10.2199 11.8204H11.8963L12.4143 10.2261L12.9323 11.8204H14.6087L13.2524 12.8057L13.7705 14.4ZM13.2524 8.14481L13.7705 9.73913L12.4143 8.75381L11.0581 9.73913L11.5762 8.14481L10.2199 7.1595H11.8963L12.4143 5.56519L12.9323 7.1595H14.6087L13.2524 8.14481ZM13.2524 3.48394L13.7705 5.07825L12.4143 4.09294L11.0581 5.07825L11.5762 3.48394L10.2199 2.49863H11.8963L12.4143 0.904312L12.9323 2.49863H14.6087L13.2524 3.48394Z" fill="#0052B4"/>
</g>
<defs>
<clipPath id="clip0_1788_4304">
<rect width="32" height="32" rx="16" fill="white"/>
</clipPath>
</defs>
</svg>

<svg xmlns="http://www.w3.org/2000/svg" width="32" height="32" fill="none" viewBox="0 0 32 32"><g clip-path="url(#a)"><path fill="#f0f0f0" d="M16 32c8.837 0 16-7.163 16-16S24.837 0 16 0 0 7.163 0 16s7.163 16 16 16"/><path fill="#d80027" d="M15.304 16h16.695c0-1.444-.192-2.843-.55-4.174H15.303zM15.304 7.651H29.65a16.1 16.1 0 0 0-3.692-4.174H15.304zM16 32c3.765 0 7.226-1.302 9.96-3.478H6.04A15.93 15.93 0 0 0 16 32M2.348 24.347h27.303a16 16 0 0 0 1.797-4.174H.551a16 16 0 0 0 1.797 4.174"/><path fill="#0052b4" d="M7.412 2.499H8.87l-1.357.985.518 1.594-1.356-.985-1.356.985.447-1.377A16 16 0 0 0 2.663 7.16h.467l-.863.627q-.201.336-.387.683l.412 1.27-.769-.56q-.287.608-.523 1.242l.454 1.398H3.13l-1.356.986.518 1.594-1.356-.985-.812.59Q0 14.987 0 16h16V0c-3.16 0-6.107.917-8.588 2.499m.62 11.901-1.357-.985-1.356.985.518-1.594-1.356-.986h1.676l.518-1.594.518 1.594H8.87l-1.357.986zm-.519-6.255.518 1.594-1.356-.985-1.356.985.518-1.594-1.356-.985h1.676l.518-1.595.518 1.595H8.87zm6.258 6.255-1.357-.985-1.356.985.518-1.594-1.356-.986h1.676l.518-1.594.518 1.594h1.677l-1.357.986zm-.519-6.255.518 1.594-1.356-.985-1.356.985.518-1.594-1.356-.985h1.676l.518-1.595.518 1.595h1.677zm0-4.661.518 1.594-1.356-.985-1.356.985.518-1.594-1.356-.985h1.676l.518-1.595.518 1.595h1.677z"/></g><defs><clipPath id="a"><rect width="32" height="32" fill="#fff" rx="16"/></clipPath></defs></svg>
